src/svg/clapperboard-question-mark.svg

<svg id="Layer_1" viewBox="0 0 24 24" xmlns="http://www.w3.org/2000/svg" data-name="Layer 1"><path d="m19.5 0h-15c-2.481 0-4.5 2.019-4.5 4.5v13c0 2.481 2.019 4.5 4.5 4.5h4.5c.276 0 .5-.224.5-.5s-.224-.5-.5-.5h-4.5c-1.93 0-3.5-1.57-3.5-3.5v-10.5h22v10.5c0 1.93-1.57 3.5-3.5 3.5h-4.5c-.276 0-.5.224-.5.5s.224.5.5.5h4.5c2.481 0 4.5-2.019 4.5-4.5v-13c0-2.481-2.019-4.5-4.5-4.5zm.718 1.075-4.925 4.925h-5.086l5-5h4.293c.246 0 .486.027.718.075zm-16.011 4.925 5-5h4.586l-5 5zm-3.207-1.5c0-1.93 1.57-3.5 3.5-3.5h3.293l-5 5h-1.793zm15.707 1.5 4.524-4.524c1.052.605 1.769 1.726 1.769 3.024v1.5zm-2.779 11.505c-.894.493-1.428 1.325-1.428 2.227v.768c0 .276-.224.5-.5.5s-.5-.224-.5-.5v-.768c0-1.271.728-2.432 1.945-3.103 1.188-.654 1.78-1.998 1.474-3.343-.246-1.073-1.132-1.959-2.206-2.205-.92-.209-1.861-.002-2.582.571-.719.574-1.131 1.429-1.131 2.347v.5c0 .276-.224.5-.5.5s-.5-.224-.5-.5v-.5c0-1.224.55-2.365 1.508-3.129.959-.764 2.211-1.042 3.428-.764 1.463.333 2.624 1.494 2.958 2.957.406 1.785-.384 3.569-1.966 4.441zm-.928 5.495c0 .552-.448 1-1 1s-1-.448-1-1 .448-1 1-1 1 .448 1 1z"/></svg>

<svg xmlns="http://www.w3.org/2000/svg" data-name="Layer 1" viewBox="0 0 24 24"><path d="M19.5 0h-15A4.5 4.5 0 0 0 0 4.5v13A4.5 4.5 0 0 0 4.5 22H9a.5.5 0 0 0 0-1H4.5A3.5 3.5 0 0 1 1 17.5V7h22v10.5a3.5 3.5 0 0 1-3.5 3.5H15a.5.5 0 0 0 0 1h4.5a4.5 4.5 0 0 0 4.5-4.5v-13A4.5 4.5 0 0 0 19.5 0m.72 1.08L15.29 6h-5.08l5-5h4.29q.38 0 .72.08M4.2 6l5-5h4.58l-5 5zM1 4.5A3.5 3.5 0 0 1 4.5 1h3.3l-5 5H1zM16.7 6l4.53-4.52A3.5 3.5 0 0 1 23 4.5V6zm-2.77 11.5c-.9.5-1.43 1.33-1.43 2.23v.77a.5.5 0 0 1-1 0v-.77c0-1.27.73-2.43 1.95-3.1a3.01 3.01 0 0 0-.74-5.55A2.99 2.99 0 0 0 9 14v.5a.5.5 0 0 1-1 0V14a3.98 3.98 0 0 1 4.94-3.9 4 4 0 0 1 1 7.4zM13 23a1 1 0 1 1-2 0 1 1 0 0 1 2 0"/></svg>
